X: 042
T: Mrs George Forshaws Strathspey
R: strathspey
M: C|
L: 1/16
Z: 2010 John Chambers <jc:trillian.mit.edu>
B: Abraham Mackintosh "A Collection of Strathspeys, Reels, Jigs &c.", Newcastle, after 1797, p.4
F: http://imslp.info/files/imglnks/usimg/a/a8/IMSLP80796-PMLP164326-Abraham_Mackintosh_coll.pdf
K: Dm
V: 1
   A2 | F3AD3A FA3 DEF2 | G3CE3G C3G E2FG | A3DF3A F3A D3g | f2d2 {f}e2d^c d2D2D2 :|
|: fg | ad3f3a d3af3a | gc3e3g | c3g e2fg | ad3fa3 | d3af3a | g3a {a}g2fe f2d2 d2fg |
        ad3f3a d3af3a | gc3e3g c3g e2fg | a3fg3e f3de3^c | d2=cB AGFE F2D2D2 |]
V: 2 clef=bass middle=d
   z2 | d4d4 d4d4 | c4c4 c4c4 | d4d4 d4d4 | a4A4 d4D2 :|
|: z2 | d4d4 d4d4 | e4c4 c4c4 | f4d4 d4d4 | e4a4 d4D4 |
        d4d4 d4d4 | e4c4 c4c4 | f4e4 d4a2g2 | f2g2a4 d4D2 |]

%%sep 2 1 500

